X:1
T:[ID 4-30ra]
T:[ID 4-30ra]
T:Bezeichnung standardisiert: Schwabisch Notat ohne Bezeichnung [= Schwabisch]
T:Urheber unbekannt Datum in der hier transkribierten schriftlichen Quelle: 1767
C:Urheber unbekannt
C:Datum in der hier transkribierten schriftlichen Quelle: 1767
L:1/8
M:3/8
K:D
V:1 treble 
V:1
 f2 e | d/e/fF | c/d/eE | F/E/F/G/F | f2 e | d/e/fF | c/d/eE | F3 :: ff/g/f | gg/a/g | aa/b/a | %11
 f3 | dF/G/A/F/ | GFE | F3 :| %15

